X:1
T:Title
%%score { ( 1 4 ) | ( 2 3 ) }
L:1/8
Q:1/4=95
M:6/8
K:Eb
V:1 treble nm="Grand Piano"
V:4 treble 
V:2 bass 
V:3 bass 
V:1
 EEE GGG | [GB][_G=A][_Ac] [=GB]3 | BBB d3 | BBB [Ge]3 | EEE GGG | [GB][_G=A][_Ac] [=GB]3 | %6
w: T.~Martin~Towne * * * * *||||||
 edc FG=A | [DB]6 | [Fd][Fd][Fd] [Fd][Fc][FB] | eGc B3 | cFG A3 | BEF G3 | EEE GGG | Bcd e3 | %14
w: ||||||||
 fec Bcd |[M:5/8] [Ge]-[Ge]- [Ge]3 |[M:9/8] z3 z3 z [B,DA][DA] |[M:3/8] [DA][B,DA][DA] | %18
w: ||||
 [DA] [B,DF]2- | [B,DF] z z |[M:6/4] z [EB]BB[EGB][GB] [GB] [EG]3 [EG]2 | z12 | %22
w: ||||
[M:15/8] z G2- G z2 z3 z6 |[M:6/4] z [B,DA]2 [DA] [B,DA]2 [DA] [B,DF]3 z2 | %24
w: ||
 z [EB]2 B [EGB]2 [GB] [EG]3 [EG]2 | z12 |[M:9/8] z[K:bass] E2- E3- E z z | z9 |] %28
w: ||||
V:2
 [E,G,B,][E,G,B,][E,G,B,] [E,B,E][E,B,E][E,B,E] | [E,E][E,E][E,E] [E,E]3 | %2
 [B,DF][B,DF][B,EG] [B,FA]3 | z2 A- A z z | [E,G,B,][E,G,B,][E,G,B,] [E,B,E][E,B,E][E,B,E] | %5
 [E,E][E,E][E,E] [E,E]3 | [F,CF][F,B,F][F,=A,F] [F,A,][F,B,=E][F,C_E] | [B,,B,]6 | %8
 [B,,A,][B,,A,][B,,A,] [B,,A,][C,A,][D,A,] | [E,G,E][E,B,E][E,A,E] [E,G,E]3 | CF,G, A,3 | %11
 B,E,F, G,3 | [E,G,B,][E,G,B,][E,G,B,] [E,B,E][E,B,E][E,B,E] | [B,DF][B,EA][=B,FA] [CEG]3 | %14
 [A,CA][A,CA][A,EA] [B,EG][B,A][B,F] |[M:5/8][K:bass] [E,B,]-[E,B,]- [E,B,]3 | %16
[M:9/8] z3 z E,D, .E,2 B, |[M:3/8] B, z B, | B, A,2- | A,F,=E, |[M:6/4] .F,2 E .E2 E E B,3 z G, | %21
 E,C,C,C,F,F, F, B,,3 A,2- |[M:15/8] A, G,2- G, F,2- F,6- F,/ z/ E,D, | %23
[M:6/4] .E,3 .B,3 B, A,3 F,=E, | .F,3 .E3 E B,3 z G, | E,A,,A,,A,,F,,F,, F,, B,,3 B,,2- | %26
[M:9/8] B,, E,2 G,A,G, F, E,2- | E,3 z3 z3 |] %28
V:3
 x6 | x6 | x6 | [B,DF][B,EG][B,F] [E,E]3 | x6 | x6 | x6 | x6 | x6 | x6 | x6 | x6 | x6 | x6 | x6 | %15
[M:5/8][K:bass] x5 |[M:9/8] z3 z3 z F,2- |[M:3/8] F, B,,2- | B,, z z | x3 | %20
[M:6/4] z G,3 B,,2- B,, z z2 B,2 | x12 |[M:15/8] x15 |[M:6/4] z F,3 B,,2- B,, z z2 z2 | %24
 z G,3 B,,2- B,, z z2 B,2 | x12 |[M:9/8] x9 | x9 |] %28
V:4
 x6 | x6 | x6 | x6 | x6 | x6 | x6 | x6 | x6 | x6 | x6 | x6 | x6 | x6 | x6 |[M:5/8] x5 |[M:9/8] x9 | %17
[M:3/8] x3 | x3 | x3 |[M:6/4] x12 | [B,EG][EFA][EFA][EFA][EFA][EFA] [EFA] [DFB]3 [DFc]2- | %22
[M:15/8] [DFc] [DB]2- [DB]- [DAB]2- [DAB]6- [DAB] z2 |[M:6/4] x12 | x12 | %25
 [_DEG][CEA][CEA][CEA][CFA][CFA] [CFA] [B,EG]3 [A,=DF]2- | %26
[M:9/8] [A,DF][K:bass] G,2 B,CB, A, G,2- | G,3 z3 z3 |] %28

